packages/tokens/icons/workplace/size32Px.svg

<svg viewBox="0 0 32 32" fill="none" xmlns="http://www.w3.org/2000/svg" width="1em" height="1em"><path d="M11.6979 4C7.73728 5.51981 4.75939 9.07719 4 13.4153M20.3021 4C24.2627 5.51981 27.2406 9.07719 28 13.4153M18.868 27.6549C17.9483 27.8805 16.9879 28 16 28C15.0121 28 14.0517 27.8805 13.132 27.6549" stroke="currentColor" stroke-linecap="round"/><path d="M21.5 26.5V24.5C21.5 23.3954 22.3954 22.5 23.5 22.5H27.5C28.6046 22.5 29.5 23.3954 29.5 24.5V26.5" stroke="currentColor" stroke-linecap="round"/><path d="M25.5 20.5C26.8807 20.5 28 19.3807 28 18C28 16.6193 26.8807 15.5 25.5 15.5C24.1193 15.5 23 16.6193 23 18C23 19.3807 24.1193 20.5 25.5 20.5Z" stroke="currentColor" stroke-linecap="round" stroke-linejoin="round"/><path d="M2.5 26.5L2.5 24.5C2.5 23.3954 3.39543 22.5 4.5 22.5H8.5C9.60457 22.5 10.5 23.3954 10.5 24.5V26.5" stroke="currentColor" stroke-linecap="round"/><path d="M6.5 20.5C7.88071 20.5 9 19.3807 9 18C9 16.6193 7.88071 15.5 6.5 15.5C5.11929 15.5 4 16.6193 4 18C4 19.3807 5.11929 20.5 6.5 20.5Z" stroke="currentColor" stroke-linecap="round" stroke-linejoin="round"/><path d="M12 13.5V11.5C12 10.3954 12.8954 9.5 14 9.5H18C19.1046 9.5 20 10.3954 20 11.5V13.5" stroke="currentColor" stroke-linecap="round"/><path d="M16 7.5C17.3807 7.5 18.5 6.38071 18.5 5C18.5 3.61929 17.3807 2.5 16 2.5C14.6193 2.5 13.5 3.61929 13.5 5C13.5 6.38071 14.6193 7.5 16 7.5Z" stroke="currentColor" stroke-linecap="round" stroke-linejoin="round"/></svg>

<svg xmlns="http://www.w3.org/2000/svg" fill="none" viewBox="0 0 32 32" width="1em" height="1em"><path stroke="currentColor" stroke-linecap="round" d="M11.698 4C7.738 5.52 4.759 9.077 4 13.415M20.302 4c3.96 1.52 6.939 5.077 7.698 9.415m-9.132 14.24a12.057 12.057 0 0 1-5.736 0M21.5 26.5v-2a2 2 0 0 1 2-2h4a2 2 0 0 1 2 2v2"/><path stroke="currentColor" stroke-linecap="round" stroke-linejoin="round" d="M25.5 20.5a2.5 2.5 0 1 0 0-5 2.5 2.5 0 0 0 0 5Z"/><path stroke="currentColor" stroke-linecap="round" d="M2.5 26.5v-2a2 2 0 0 1 2-2h4a2 2 0 0 1 2 2v2"/><path stroke="currentColor" stroke-linecap="round" stroke-linejoin="round" d="M6.5 20.5a2.5 2.5 0 1 0 0-5 2.5 2.5 0 0 0 0 5Z"/><path stroke="currentColor" stroke-linecap="round" d="M12 13.5v-2a2 2 0 0 1 2-2h4a2 2 0 0 1 2 2v2"/><path stroke="currentColor" stroke-linecap="round" stroke-linejoin="round" d="M16 7.5a2.5 2.5 0 1 0 0-5 2.5 2.5 0 0 0 0 5Z"/></svg>
